Numix-GalliumOS/22/categories/preferences-certificates.svg

<?xml version="1.0" encoding="UTF-8" standalone="no"?>
<svg
   xmlns:dc="http://purl.org/dc/elements/1.1/"
   xmlns:cc="http://creativecommons.org/ns#"
   xmlns:rdf="http://www.w3.org/1999/02/22-rdf-syntax-ns#"
   xmlns:svg="http://www.w3.org/2000/svg"
   xmlns="http://www.w3.org/2000/svg"
   xmlns:sodipodi="http://sodipodi.sourceforge.net/DTD/sodipodi-0.dtd"
   xmlns:inkscape="http://www.inkscape.org/namespaces/inkscape"
   width="22"
   height="22"
   viewBox="0 0 17.6 17.6"
   id="svg2"
   version="1.1"
   inkscape:version="0.91 r"
   sodipodi:docname="preferences-certificates.svg">
  <metadata
     id="metadata10">
    <rdf:RDF>
      <cc:Work
         rdf:about="">
        <dc:format>image/svg+xml</dc:format>
        <dc:type
           rdf:resource="http://purl.org/dc/dcmitype/StillImage" />
        <dc:title />
      </cc:Work>
    </rdf:RDF>
  </metadata>
  <defs
     id="defs8" />
  <sodipodi:namedview
     pagecolor="#ffffff"
     bordercolor="#666666"
     borderopacity="1"
     objecttolerance="10"
     gridtolerance="10"
     guidetolerance="10"
     inkscape:pageopacity="0"
     inkscape:pageshadow="2"
     inkscape:window-width="1366"
     inkscape:window-height="704"
     id="namedview6"
     showgrid="false"
     inkscape:zoom="22.627417"
     inkscape:cx="9.0130249"
     inkscape:cy="12.451524"
     inkscape:window-x="0"
     inkscape:window-y="27"
     inkscape:window-maximized="1"
     inkscape:current-layer="svg2"
     inkscape:snap-intersection-paths="false"
     inkscape:object-nodes="true">
    <inkscape:grid
       type="xygrid"
       id="grid4153" />
  </sodipodi:namedview>
  <path
     style="fill:#dc6462;fill-opacity:1"
     d="M 10.994141 2 C 10.281532 2 9.6842354 2.4052154 9.4101562 2.9765625 C 8.8674759 2.6104567 8.1119854 2.5385835 7.4980469 2.8769531 C 6.8841084 3.2097765 6.5607957 3.8474795 6.6210938 4.46875 C 5.9633014 4.4632182 5.2766026 4.7196682 4.9257812 5.2910156 C 4.5694765 5.8679095 4.6424432 6.5756081 5.0371094 7.0859375 C 4.4286499 7.341102 4 7.9066188 4 8.5722656 C 4 9.2379127 4.4286499 9.8053819 5.0371094 10.060547 C 4.6479147 10.570876 4.5694681 11.273027 4.9257812 11.855469 C 5.2766028 12.426816 5.9633015 12.733204 6.6210938 12.677734 C 6.5608062 13.299004 6.8841084 13.936706 7.4980469 14.269531 C 7.6577311 14.35679 7.8271165 14.4047 8 14.435547 L 8 21 L 11 18 L 14 21 L 14 14.451172 C 14.172782 14.429321 14.342782 14.385601 14.501953 14.269531 C 15.115891 13.936709 15.439202 13.299004 15.378906 12.677734 C 16.036699 12.683234 16.723396 12.426816 17.074219 11.855469 C 17.430523 11.278328 17.357579 10.570876 16.962891 10.060547 C 17.571353 9.8054444 18 9.2379128 18 8.5722656 C 18 7.9066187 17.571347 7.341102 16.962891 7.0859375 C 17.352084 6.5756081 17.430536 5.8734566 17.074219 5.2910156 C 16.723399 4.719669 16.036701 4.4132794 15.378906 4.46875 C 15.439214 3.8474795 15.115892 3.2097765 14.501953 2.8769531 C 13.888016 2.5441296 13.132524 2.6104569 12.589844 2.9765625 C 12.315769 2.4052154 11.718466 2 11.005859 2 L 10.994141 2 z M 10.994141 4.4335938 C 13.406043 4.4335938 15.369141 6.2722684 15.369141 8.5410156 C 15.369141 10.809762 13.411525 12.644531 10.994141 12.644531 C 8.5822385 12.644531 6.6210937 10.809762 6.6210938 8.5410156 C 6.6210938 6.2722684 8.576755 4.4335938 10.994141 4.4335938 z M 10.994141 5.2558594 C 9.0646176 5.2558594 7.4980469 6.7271274 7.4980469 8.5410156 C 7.4980469 10.354904 9.0646176 11.824219 10.994141 11.824219 C 12.923659 11.824219 14.492186 10.354904 14.492188 8.5410156 C 14.492188 6.7271274 12.923659 5.2558594 10.994141 5.2558594 z "
     transform="scale(0.8,0.8)"
     id="path39" />
</svg>

<svg xmlns="http://www.w3.org/2000/svg" width="22" height="22" viewBox="0 0 17.6 17.6">
 <path d="m 10.994 2 c -0.713 0 -1.31 0.405 -1.584 0.977 c -0.543 -0.366 -1.298 -0.438 -1.912 -0.1 c -0.614 0.333 -0.937 0.971 -0.877 1.592 c -0.658 -0.006 -1.344 0.251 -1.695 0.822 c -0.356 0.577 -0.283 1.285 0.111 1.795 c -0.608 0.255 -1.037 0.821 -1.037 1.486 c 0 0.666 0.429 1.233 1.037 1.488 c -0.389 0.51 -0.468 1.212 -0.111 1.795 c 0.351 0.571 1.038 0.878 1.695 0.822 c -0.06 0.621 0.263 1.259 0.877 1.592 c 0.16 0.087 0.329 0.135 0.502 0.166 l 0 6.564 l 3 -3 l 3 3 l 0 -6.549 c 0.173 -0.022 0.343 -0.066 0.502 -0.182 c 0.614 -0.333 0.937 -0.971 0.877 -1.592 c 0.658 0.006 1.344 -0.251 1.695 -0.822 c 0.356 -0.577 0.283 -1.285 -0.111 -1.795 c 0.608 -0.255 1.037 -0.823 1.037 -1.488 c 0 -0.666 -0.429 -1.231 -1.037 -1.486 c 0.389 -0.51 0.468 -1.212 0.111 -1.795 c -0.351 -0.571 -1.038 -0.878 -1.695 -0.822 c 0.06 -0.621 -0.263 -1.259 -0.877 -1.592 c -0.614 -0.333 -1.369 -0.266 -1.912 0.1 c -0.274 -0.571 -0.871 -0.977 -1.584 -0.977 l -0.012 0 z m 0 2.434 c 2.412 0 4.375 1.839 4.375 4.107 c 0 2.269 -1.958 4.104 -4.375 4.104 c -2.412 0 -4.373 -1.835 -4.373 -4.104 c 0 -2.269 1.956 -4.107 4.373 -4.107 z m 0 0.822 c -1.93 0 -3.496 1.471 -3.496 3.285 c 0 1.814 1.567 3.283 3.496 3.283 c 1.93 0 3.498 -1.469 3.498 -3.283 c 0 -1.814 -1.569 -3.285 -3.498 -3.285 z" transform="scale(0.8,0.8)" style="fill:#dc6462;fill-opacity:1"/>
</svg>
